static/img/kroki/27d2112655568972878e7319b59b9cb3.svg

<?xml version="1.0" encoding="us-ascii" standalone="no"?><svg xmlns="http://www.w3.org/2000/svg" xmlns:xlink="http://www.w3.org/1999/xlink" contentStyleType="text/css" height="1111px" preserveAspectRatio="none" style="width:419px;height:1111px;" version="1.1" viewBox="0 0 419 1111" width="419px" zoomAndPan="magnify"><defs/><g><!--class aws_resource--><g id="elem_aws_resource"><rect codeLine="22" fill="#3D176E" height="74.0859" id="aws_resource" rx="2.5" ry="2.5" style="stroke:#000D19;stroke-width:0.5;" width="155" x="132" y="438.75"/><ellipse cx="147" cy="458.6445" fill="#ADD1B2" rx="11" ry="11" style="stroke:#181818;stroke-width:1.0;"/><path d="M149.9688,464.2852 Q149.3906,464.582 148.75,464.7227 Q148.1094,464.8789 147.4063,464.8789 Q144.9063,464.8789 143.5781,463.2383 Q142.2656,461.582 142.2656,458.457 Q142.2656,455.332 143.5781,453.6758 Q144.9063,452.0195 147.4063,452.0195 Q148.1094,452.0195 148.75,452.1758 Q149.4063,452.332 149.9688,452.6289 L149.9688,455.3477 Q149.3438,454.7695 148.75,454.5039 Q148.1563,454.2227 147.5313,454.2227 Q146.1875,454.2227 145.5,455.3008 Q144.8125,456.3633 144.8125,458.457 Q144.8125,460.5508 145.5,461.6289 Q146.1875,462.6914 147.5313,462.6914 Q148.1563,462.6914 148.75,462.4258 Q149.3438,462.1445 149.9688,461.5664 L149.9688,464.2852 Z " fill="#000000"/><text fill="#D9B8FF" font-family="Helvetica" font-size="17" lengthAdjust="spacing" textLength="113" x="166" y="464.5298">aws_resource</text><line style="stroke:#000D19;stroke-width:0.5;" x1="133" x2="286" y1="478.5391" y2="478.5391"/><text fill="#D9B8FF" font-family="sans-serif" font-size="14" font-weight="bold" lengthAdjust="spacing" textLength="26" x="143" y="500.5342">arn</text><text fill="#D9B8FF" font-family="sans-serif" font-size="14" lengthAdjust="spacing" textLength="48" x="169" y="500.5342">: string</text></g><!--class aws_sagemaker_app--><g id="elem_aws_sagemaker_app"><rect codeLine="25" fill="#3D176E" height="258.1641" id="aws_sagemaker_app" rx="2.5" ry="2.5" style="stroke:#000D19;stroke-width:0.5;" width="405" x="7" y="633.84"/><ellipse cx="113.75" cy="653.7345" fill="#ADD1B2" rx="11" ry="11" style="stroke:#181818;stroke-width:1.0;"/><path d="M116.7188,659.3752 Q116.1406,659.672 115.5,659.8127 Q114.8594,659.9689 114.1563,659.9689 Q111.6563,659.9689 110.3281,658.3283 Q109.0156,656.672 109.0156,653.547 Q109.0156,650.422 110.3281,648.7658 Q111.6563,647.1095 114.1563,647.1095 Q114.8594,647.1095 115.5,647.2658 Q116.1563,647.422 116.7188,647.7189 L116.7188,650.4377 Q116.0938,649.8595 115.5,649.5939 Q114.9063,649.3127 114.2813,649.3127 Q112.9375,649.3127 112.25,650.3908 Q111.5625,651.4533 111.5625,653.547 Q111.5625,655.6408 112.25,656.7189 Q112.9375,657.7814 114.2813,657.7814 Q114.9063,657.7814 115.5,657.5158 Q116.0938,657.2345 116.7188,656.6564 L116.7188,659.3752 Z " fill="#000000"/><text fill="#D9B8FF" font-family="Helvetica" font-size="17" lengthAdjust="spacing" textLength="173" x="139.25" y="659.6198">aws_sagemaker_app</text><line style="stroke:#000D19;stroke-width:0.5;" x1="8" x2="411" y1="673.6291" y2="673.6291"/><text fill="#D9B8FF" font-family="sans-serif" font-size="14" font-weight="bold" lengthAdjust="spacing" textLength="114" x="18" y="695.6242">app_domain_id</text><text fill="#D9B8FF" font-family="sans-serif" font-size="14" lengthAdjust="spacing" textLength="48" x="132" y="695.6242">: string</text><text fill="#D9B8FF" font-family="sans-serif" font-size="14" font-weight="bold" lengthAdjust="spacing" textLength="148" x="18" y="721.9211">app_failure_reason</text><text fill="#D9B8FF" font-family="sans-serif" font-size="14" lengthAdjust="spacing" textLength="48" x="166" y="721.9211">: string</text><text fill="#D9B8FF" font-family="sans-serif" font-size="14" font-weight="bold" lengthAdjust="spacing" textLength="263" x="18" y="748.2179">app_last_health_check_timestamp</text><text fill="#D9B8FF" font-family="sans-serif" font-size="14" lengthAdjust="spacing" textLength="70" x="281" y="748.2179">: datetime</text><text fill="#D9B8FF" font-family="sans-serif" font-size="14" font-weight="bold" lengthAdjust="spacing" textLength="153" x="18" y="774.5148">app_resource_spec</text><text fill="#D9B8FF" font-family="sans-serif" font-size="14" lengthAdjust="spacing" textLength="230" x="171" y="774.5148">: aws_sagemaker_resource_spec</text><text fill="#D9B8FF" font-family="sans-serif" font-size="14" font-weight="bold" lengthAdjust="spacing" textLength="133" x="18" y="800.8117">app_space_name</text><text fill="#D9B8FF" font-family="sans-serif" font-size="14" lengthAdjust="spacing" textLength="48" x="151" y="800.8117">: string</text><text fill="#D9B8FF" font-family="sans-serif" font-size="14" font-weight="bold" lengthAdjust="spacing" textLength="85" x="18" y="827.1086">app_status</text><text fill="#D9B8FF" font-family="sans-serif" font-size="14" lengthAdjust="spacing" textLength="48" x="103" y="827.1086">: string</text><text fill="#D9B8FF" font-family="sans-serif" font-size="14" font-weight="bold" lengthAdjust="spacing" textLength="71" x="18" y="853.4054">app_type</text><text fill="#D9B8FF" font-family="sans-serif" font-size="14" lengthAdjust="spacing" textLength="48" x="89" y="853.4054">: string</text><text fill="#D9B8FF" font-family="sans-serif" font-size="14" font-weight="bold" lengthAdjust="spacing" textLength="180" x="18" y="879.7023">app_user_profile_name</text><text fill="#D9B8FF" font-family="sans-serif" font-size="14" lengthAdjust="spacing" textLength="48" x="198" y="879.7023">: string</text></g><!--class aws_sagemaker_resource_spec--><g id="elem_aws_sagemaker_resource_spec"><rect codeLine="35" fill="#3D176E" height="152.9766" id="aws_sagemaker_resource_spec" rx="2.5" ry="2.5" style="stroke:#000D19;stroke-width:0.5;" width="317" x="51" y="952"/><ellipse cx="73.2" cy="971.8945" fill="#ADD1B2" rx="11" ry="11" style="stroke:#181818;stroke-width:1.0;"/><path d="M76.1688,977.5352 Q75.5906,977.832 74.95,977.9727 Q74.3094,978.1289 73.6063,978.1289 Q71.1063,978.1289 69.7781,976.4883 Q68.4656,974.832 68.4656,971.707 Q68.4656,968.582 69.7781,966.9258 Q71.1063,965.2695 73.6063,965.2695 Q74.3094,965.2695 74.95,965.4258 Q75.6063,965.582 76.1688,965.8789 L76.1688,968.5977 Q75.5438,968.0195 74.95,967.7539 Q74.3563,967.4727 73.7313,967.4727 Q72.3875,967.4727 71.7,968.5508 Q71.0125,969.6133 71.0125,971.707 Q71.0125,973.8008 71.7,974.8789 Q72.3875,975.9414 73.7313,975.9414 Q74.3563,975.9414 74.95,975.6758 Q75.5438,975.3945 76.1688,974.8164 L76.1688,977.5352 Z " fill="#000000"/><text fill="#D9B8FF" font-family="Helvetica" font-size="17" lengthAdjust="spacing" textLength="259" x="93.8" y="977.7798">aws_sagemaker_resource_spec</text><line style="stroke:#000D19;stroke-width:0.5;" x1="52" x2="367" y1="991.7891" y2="991.7891"/><text fill="#D9B8FF" font-family="sans-serif" font-size="14" font-weight="bold" lengthAdjust="spacing" textLength="109" x="62" y="1013.7842">instance_type</text><text fill="#D9B8FF" font-family="sans-serif" font-size="14" lengthAdjust="spacing" textLength="48" x="171" y="1013.7842">: string</text><text fill="#D9B8FF" font-family="sans-serif" font-size="14" font-weight="bold" lengthAdjust="spacing" textLength="154" x="62" y="1040.0811">lifecycle_config_arn</text><text fill="#D9B8FF" font-family="sans-serif" font-size="14" lengthAdjust="spacing" textLength="48" x="216" y="1040.0811">: string</text><text fill="#D9B8FF" font-family="sans-serif" font-size="14" font-weight="bold" lengthAdjust="spacing" textLength="181" x="62" y="1066.3779">sage_maker_image_arn</text><text fill="#D9B8FF" font-family="sans-serif" font-size="14" lengthAdjust="spacing" textLength="48" x="243" y="1066.3779">: string</text><text fill="#D9B8FF" font-family="sans-serif" font-size="14" font-weight="bold" lengthAdjust="spacing" textLength="247" x="62" y="1092.6748">sage_maker_image_version_arn</text><text fill="#D9B8FF" font-family="sans-serif" font-size="14" lengthAdjust="spacing" textLength="48" x="309" y="1092.6748">: string</text></g><!--class resource--><g id="elem_resource"><rect codeLine="41" fill="#3D176E" height="310.7578" id="resource" rx="2.5" ry="2.5" style="stroke:#000D19;stroke-width:0.5;" width="227" x="96" y="7"/><ellipse cx="164.75" cy="26.8945" fill="#ADD1B2" rx="11" ry="11" style="stroke:#181818;stroke-width:1.0;"/><path d="M167.7188,32.5352 Q167.1406,32.832 166.5,32.9727 Q165.8594,33.1289 165.1563,33.1289 Q162.6563,33.1289 161.3281,31.4883 Q160.0156,29.832 160.0156,26.707 Q160.0156,23.582 161.3281,21.9258 Q162.6563,20.2695 165.1563,20.2695 Q165.8594,20.2695 166.5,20.4258 Q167.1563,20.582 167.7188,20.8789 L167.7188,23.5977 Q167.0938,23.0195 166.5,22.7539 Q165.9063,22.4727 165.2813,22.4727 Q163.9375,22.4727 163.25,23.5508 Q162.5625,24.6133 162.5625,26.707 Q162.5625,28.8008 163.25,29.8789 Q163.9375,30.9414 165.2813,30.9414 Q165.9063,30.9414 166.5,30.6758 Q167.0938,30.3945 167.7188,29.8164 L167.7188,32.5352 Z " fill="#000000"/><text fill="#D9B8FF" font-family="Helvetica" font-size="17" lengthAdjust="spacing" textLength="71" x="190.25" y="32.7798">resource</text><line style="stroke:#000D19;stroke-width:0.5;" x1="97" x2="322" y1="46.7891" y2="46.7891"/><text fill="#D9B8FF" font-family="sans-serif" font-size="14" font-weight="bold" lengthAdjust="spacing" textLength="29" x="107" y="68.7842">age</text><text fill="#D9B8FF" font-family="sans-serif" font-size="14" lengthAdjust="spacing" textLength="66" x="136" y="68.7842">: duration</text><text fill="#D9B8FF" font-family="sans-serif" font-size="14" font-weight="bold" lengthAdjust="spacing" textLength="43" x="107" y="95.0811">atime</text><text fill="#D9B8FF" font-family="sans-serif" font-size="14" lengthAdjust="spacing" textLength="70" x="150" y="95.0811">: datetime</text><text fill="#D9B8FF" font-family="sans-serif" font-size="14" font-weight="bold" lengthAdjust="spacing" textLength="43" x="107" y="121.3779">ctime</text><text fill="#D9B8FF" font-family="sans-serif" font-size="14" lengthAdjust="spacing" textLength="70" x="150" y="121.3779">: datetime</text><text fill="#D9B8FF" font-family="sans-serif" font-size="14" font-weight="bold" lengthAdjust="spacing" textLength="14" x="107" y="147.6748">id</text><text fill="#D9B8FF" font-family="sans-serif" font-size="14" lengthAdjust="spacing" textLength="48" x="121" y="147.6748">: string</text><text fill="#D9B8FF" font-family="sans-serif" font-size="14" font-weight="bold" lengthAdjust="spacing" textLength="33" x="107" y="173.9717">kind</text><text fill="#D9B8FF" font-family="sans-serif" font-size="14" lengthAdjust="spacing" textLength="48" x="140" y="173.9717">: string</text><text fill="#D9B8FF" font-family="sans-serif" font-size="14" font-weight="bold" lengthAdjust="spacing" textLength="90" x="107" y="200.2686">last_access</text><text fill="#D9B8FF" font-family="sans-serif" font-size="14" lengthAdjust="spacing" textLength="66" x="197" y="200.2686">: duration</text><text fill="#D9B8FF" font-family="sans-serif" font-size="14" font-weight="bold" lengthAdjust="spacing" textLength="90" x="107" y="226.5654">last_update</text><text fill="#D9B8FF" font-family="sans-serif" font-size="14" lengthAdjust="spacing" textLength="66" x="197" y="226.5654">: duration</text><text fill="#D9B8FF" font-family="sans-serif" font-size="14" font-weight="bold" lengthAdjust="spacing" textLength="48" x="107" y="252.8623">mtime</text><text fill="#D9B8FF" font-family="sans-serif" font-size="14" lengthAdjust="spacing" textLength="70" x="155" y="252.8623">: datetime</text><text fill="#D9B8FF" font-family="sans-serif" font-size="14" font-weight="bold" lengthAdjust="spacing" textLength="43" x="107" y="279.1592">name</text><text fill="#D9B8FF" font-family="sans-serif" font-size="14" lengthAdjust="spacing" textLength="48" x="150" y="279.1592">: string</text><text fill="#D9B8FF" font-family="sans-serif" font-size="14" font-weight="bold" lengthAdjust="spacing" textLength="34" x="107" y="305.4561">tags</text><text fill="#D9B8FF" font-family="sans-serif" font-size="14" lengthAdjust="spacing" textLength="171" x="141" y="305.4561">: dictionary[string, string]</text></g><!--reverse link resource to aws_resource--><g id="link_resource_aws_resource"><path codeLine="53" d="M209.5,336.17 C209.5,381.21 209.5,408.34 209.5,438.51 " fill="none" id="resource-backto-aws_resource" style="stroke:#FFAF37;stroke-width:2.0;"/><polygon fill="none" points="209.5,318.17,203.5,336.17,215.5,336.17,209.5,318.17" style="stroke:#FFAF37;stroke-width:2.0;"/></g><!--reverse link aws_resource to aws_sagemaker_app--><g id="link_aws_resource_aws_sagemaker_app"><path codeLine="54" d="M209.5,531.2 C209.5,561.82 209.5,589.53 209.5,633.44 " fill="none" id="aws_resource-backto-aws_sagemaker_app" style="stroke:#FFAF37;stroke-width:2.0;"/><polygon fill="none" points="209.5,513.2,203.5,531.2,215.5,531.2,209.5,513.2" style="stroke:#FFAF37;stroke-width:2.0;"/></g><!--link aws_sagemaker_app to aws_sagemaker_resource_spec--><g id="link_aws_sagemaker_app_aws_sagemaker_resource_spec"><path codeLine="55" d="M209.5,892.23 C209.5,912.52 209.5,926.93 209.5,945.51 " fill="none" id="aws_sagemaker_app-to-aws_sagemaker_resource_spec" style="stroke:#FFAF37;stroke-width:2.0;"/><polygon fill="#FFAF37" points="209.5,951.51,213.5,942.51,209.5,946.51,205.5,942.51,209.5,951.51" style="stroke:#FFAF37;stroke-width:2.0;"/></g><!--SRC=[XLHTQzim57tFhp3qpIoGj6nfnXYqWR6zbB7kRGnn8rtP8jO7Lt93zl7V9yLfPrjkycREEJhtt0zSAu45QXSEXKQzHV8plrF60O4kxeZiVcCRIyMLb21lLcFoapNXek01D1QViNd2e3YC5TzhnNS6lI-kUzGzy5r5jZMYimy4naSAJUYfDWruVnS2gMqRi1T6hBUtKewLOzEh6x5SlSDCPaaWdIIBnK8irsF9nL9d-tvHFAfVM2pxGtkm0REOMOcZwcpAfEY5p1fzvb_D-1M4KAOgtlQmRrqcCaW3_B46OVT9BQ7n_J8-8A4D1uURh2jStmgvcXH_UKtCq-GAs7j6w6rB78lVix84CcNvFXfG337xsvDvg5333ec1SvtMEIQi1cMO4hrN7ID1DIrXj0TlJKP7ty1gX2RKZDV8TomeZJw0Taah8602JkhdZCmxv8aV9XhGfoVnnYDWubQosh5AQ7q6ftbbOEkZloChLPEvJOzd4EOuA6LYHHEHh4AZ9F83ZzRS6gagDfn_MIPRrlagdRul2fxYdqTPmwOtELnsTKmZMe8GdoGapNmqVpw1ZVOT3sy87BSBdCUVqQZ2aMbTyXenUg9Ejhu0LUUeU7e6TFZHSMzEcf-nrPScF_oPp-U38vyDBlu_FxZkMNxly_d7Ssl-1m00]--></g></svg>

<svg xmlns="http://www.w3.org/2000/svg" width="419" height="1111" viewBox="0 0 419 1111"><rect width="155" height="74.086" x="132" y="438.75" fill="#3D176E" rx="2.5" ry="2.5" style="stroke:#000d19;stroke-width:.5"/><circle cx="147" cy="458.644" r="11" fill="#ADD1B2" style="stroke:#181818;stroke-width:1"/><path d="M149.969 464.285q-.578.297-1.219.438-.64.156-1.344.156-2.5 0-3.828-1.64-1.312-1.657-1.312-4.782t1.312-4.781q1.328-1.656 3.828-1.656.703 0 1.344.156.656.156 1.219.453v2.719q-.625-.579-1.219-.844-.594-.281-1.219-.281-1.344 0-2.031 1.078-.687 1.062-.687 3.156t.687 3.172q.688 1.062 2.031 1.062.625 0 1.219-.265.594-.281 1.219-.86z"/><text x="166" y="464.53" fill="#D9B8FF" font-family="Helvetica" font-size="17" textLength="113">aws_resource</text><path d="M133 478.539h153" style="stroke:#000d19;stroke-width:.5"/><text x="143" y="500.534" fill="#D9B8FF" font-family="sans-serif" font-size="14" font-weight="bold" textLength="26">arn</text><text x="169" y="500.534" fill="#D9B8FF" font-family="sans-serif" font-size="14" textLength="48">: string</text><rect width="405" height="258.164" x="7" y="633.84" fill="#3D176E" rx="2.5" ry="2.5" style="stroke:#000d19;stroke-width:.5"/><circle cx="113.75" cy="653.735" r="11" fill="#ADD1B2" style="stroke:#181818;stroke-width:1"/><path d="M116.719 659.375q-.578.297-1.219.438-.64.156-1.344.156-2.5 0-3.828-1.64-1.312-1.657-1.312-4.782t1.312-4.781q1.328-1.656 3.828-1.656.703 0 1.344.156.656.156 1.219.453v2.719q-.625-.578-1.219-.844-.594-.281-1.219-.281-1.344 0-2.031 1.078-.687 1.062-.687 3.156t.687 3.172q.688 1.062 2.031 1.062.625 0 1.219-.265.594-.281 1.219-.86z"/><text x="139.25" y="659.62" fill="#D9B8FF" font-family="Helvetica" font-size="17" textLength="173">aws_sagemaker_app</text><path d="M8 673.629h403" style="stroke:#000d19;stroke-width:.5"/><text x="18" y="695.624" fill="#D9B8FF" font-family="sans-serif" font-size="14" font-weight="bold" textLength="114">app_domain_id</text><text x="132" y="695.624" fill="#D9B8FF" font-family="sans-serif" font-size="14" textLength="48">: string</text><text x="18" y="721.921" fill="#D9B8FF" font-family="sans-serif" font-size="14" font-weight="bold" textLength="148">app_failure_reason</text><text x="166" y="721.921" fill="#D9B8FF" font-family="sans-serif" font-size="14" textLength="48">: string</text><text x="18" y="748.218" fill="#D9B8FF" font-family="sans-serif" font-size="14" font-weight="bold" textLength="263">app_last_health_check_timestamp</text><text x="281" y="748.218" fill="#D9B8FF" font-family="sans-serif" font-size="14" textLength="70">: datetime</text><text x="18" y="774.515" fill="#D9B8FF" font-family="sans-serif" font-size="14" font-weight="bold" textLength="153">app_resource_spec</text><text x="171" y="774.515" fill="#D9B8FF" font-family="sans-serif" font-size="14" textLength="230">: aws_sagemaker_resource_spec</text><text x="18" y="800.812" fill="#D9B8FF" font-family="sans-serif" font-size="14" font-weight="bold" textLength="133">app_space_name</text><text x="151" y="800.812" fill="#D9B8FF" font-family="sans-serif" font-size="14" textLength="48">: string</text><text x="18" y="827.109" fill="#D9B8FF" font-family="sans-serif" font-size="14" font-weight="bold" textLength="85">app_status</text><text x="103" y="827.109" fill="#D9B8FF" font-family="sans-serif" font-size="14" textLength="48">: string</text><text x="18" y="853.405" fill="#D9B8FF" font-family="sans-serif" font-size="14" font-weight="bold" textLength="71">app_type</text><text x="89" y="853.405" fill="#D9B8FF" font-family="sans-serif" font-size="14" textLength="48">: string</text><text x="18" y="879.702" fill="#D9B8FF" font-family="sans-serif" font-size="14" font-weight="bold" textLength="180">app_user_profile_name</text><text x="198" y="879.702" fill="#D9B8FF" font-family="sans-serif" font-size="14" textLength="48">: string</text><rect width="317" height="152.977" x="51" y="952" fill="#3D176E" rx="2.5" ry="2.5" style="stroke:#000d19;stroke-width:.5"/><circle cx="73.2" cy="971.894" r="11" fill="#ADD1B2" style="stroke:#181818;stroke-width:1"/><path d="M76.169 977.535q-.578.297-1.219.438-.64.156-1.344.156-2.5 0-3.828-1.64-1.312-1.657-1.312-4.782t1.312-4.781q1.328-1.657 3.828-1.657.703 0 1.344.157.656.156 1.219.453v2.719q-.625-.578-1.219-.844-.594-.281-1.219-.281-1.343 0-2.031 1.078-.687 1.062-.687 3.156t.687 3.172q.688 1.062 2.031 1.062.625 0 1.219-.265.594-.282 1.219-.86z"/><text x="93.8" y="977.78" fill="#D9B8FF" font-family="Helvetica" font-size="17" textLength="259">aws_sagemaker_resource_spec</text><path d="M52 991.789h315" style="stroke:#000d19;stroke-width:.5"/><text x="62" y="1013.784" fill="#D9B8FF" font-family="sans-serif" font-size="14" font-weight="bold" textLength="109">instance_type</text><text x="171" y="1013.784" fill="#D9B8FF" font-family="sans-serif" font-size="14" textLength="48">: string</text><text x="62" y="1040.081" fill="#D9B8FF" font-family="sans-serif" font-size="14" font-weight="bold" textLength="154">lifecycle_config_arn</text><text x="216" y="1040.081" fill="#D9B8FF" font-family="sans-serif" font-size="14" textLength="48">: string</text><text x="62" y="1066.378" fill="#D9B8FF" font-family="sans-serif" font-size="14" font-weight="bold" textLength="181">sage_maker_image_arn</text><text x="243" y="1066.378" fill="#D9B8FF" font-family="sans-serif" font-size="14" textLength="48">: string</text><text x="62" y="1092.675" fill="#D9B8FF" font-family="sans-serif" font-size="14" font-weight="bold" textLength="247">sage_maker_image_version_arn</text><text x="309" y="1092.675" fill="#D9B8FF" font-family="sans-serif" font-size="14" textLength="48">: string</text><rect width="227" height="310.758" x="96" y="7" fill="#3D176E" rx="2.5" ry="2.5" style="stroke:#000d19;stroke-width:.5"/><circle cx="164.75" cy="26.895" r="11" fill="#ADD1B2" style="stroke:#181818;stroke-width:1"/><path d="M167.719 32.535q-.578.297-1.219.438-.64.156-1.344.156-2.5 0-3.828-1.64-1.312-1.657-1.312-4.782t1.312-4.781q1.328-1.656 3.828-1.656.703 0 1.344.156.656.156 1.219.453v2.719q-.625-.578-1.219-.844-.594-.281-1.219-.281-1.344 0-2.031 1.078-.687 1.062-.687 3.156t.687 3.172q.688 1.062 2.031 1.062.625 0 1.219-.265.594-.281 1.219-.86z"/><text x="190.25" y="32.78" fill="#D9B8FF" font-family="Helvetica" font-size="17" textLength="71">resource</text><path d="M97 46.789h225" style="stroke:#000d19;stroke-width:.5"/><text x="107" y="68.784" fill="#D9B8FF" font-family="sans-serif" font-size="14" font-weight="bold" textLength="29">age</text><text x="136" y="68.784" fill="#D9B8FF" font-family="sans-serif" font-size="14" textLength="66">: duration</text><text x="107" y="95.081" fill="#D9B8FF" font-family="sans-serif" font-size="14" font-weight="bold" textLength="43">atime</text><text x="150" y="95.081" fill="#D9B8FF" font-family="sans-serif" font-size="14" textLength="70">: datetime</text><text x="107" y="121.378" fill="#D9B8FF" font-family="sans-serif" font-size="14" font-weight="bold" textLength="43">ctime</text><text x="150" y="121.378" fill="#D9B8FF" font-family="sans-serif" font-size="14" textLength="70">: datetime</text><text x="107" y="147.675" fill="#D9B8FF" font-family="sans-serif" font-size="14" font-weight="bold" textLength="14">id</text><text x="121" y="147.675" fill="#D9B8FF" font-family="sans-serif" font-size="14" textLength="48">: string</text><text x="107" y="173.972" fill="#D9B8FF" font-family="sans-serif" font-size="14" font-weight="bold" textLength="33">kind</text><text x="140" y="173.972" fill="#D9B8FF" font-family="sans-serif" font-size="14" textLength="48">: string</text><text x="107" y="200.269" fill="#D9B8FF" font-family="sans-serif" font-size="14" font-weight="bold" textLength="90">last_access</text><text x="197" y="200.269" fill="#D9B8FF" font-family="sans-serif" font-size="14" textLength="66">: duration</text><text x="107" y="226.565" fill="#D9B8FF" font-family="sans-serif" font-size="14" font-weight="bold" textLength="90">last_update</text><text x="197" y="226.565" fill="#D9B8FF" font-family="sans-serif" font-size="14" textLength="66">: duration</text><text x="107" y="252.862" fill="#D9B8FF" font-family="sans-serif" font-size="14" font-weight="bold" textLength="48">mtime</text><text x="155" y="252.862" fill="#D9B8FF" font-family="sans-serif" font-size="14" textLength="70">: datetime</text><text x="107" y="279.159" fill="#D9B8FF" font-family="sans-serif" font-size="14" font-weight="bold" textLength="43">name</text><text x="150" y="279.159" fill="#D9B8FF" font-family="sans-serif" font-size="14" textLength="48">: string</text><text x="107" y="305.456" fill="#D9B8FF" font-family="sans-serif" font-size="14" font-weight="bold" textLength="34">tags</text><text x="141" y="305.456" fill="#D9B8FF" font-family="sans-serif" font-size="14" textLength="171">: dictionary[string, string]</text><path fill="none" d="M209.5 336.17v102.34m0-120.34-6 18h12zm0 213.03v102.24m0-120.24-6 18h12zm0 379.03v53.28" style="stroke:#ffaf37;stroke-width:2"/><path fill="#FFAF37" d="m209.5 951.51 4-9-4 4-4-4z" style="stroke:#ffaf37;stroke-width:2"/></svg>
